X: 39816
T: There's Naebody Tae Blame But Ma Sel'
R: jig
M: 6/8
K: Bminor
FBc d2e|fef b2a|faf fec|cBc ecA|
FBc d2e|fef b2a|faf ecA|1 BcB B3:|2 BcB B2c||
dbd cac|B2f fec|ABc cde|efd cBA|
dbd cac|B2f fec|def ecA|BcB B2c|
dbd cac|B2f fec|ABc cde|efd cBA|
FBc d2e|fef b2a|faf ecA|BcB B3||

